X: 33997
T: Reel Around The Sun
R: reel
M: 4/4
K: Eminor
|:E2(3EEE E2FE|GEAE GEFD|E2(3EEE E2FE|GEAE B2de|
fgfe dfBd|AdBd AdBd|E2BE cEBE|AGDF E4:|
|:(3fedBd efgf|edBd AdBd|(3fedBd efgf|edBd efga|
bec'e beae|bec'e beae|bagf eded|BFEF D4:|

